X: 39210
T: Sylvain Barou's
R: polka
M: 2/4
K: Bminor
|:F>B dB|cA BF|E>F Ac|BA FE|
F>B dB|cA BF|e/f/e/d/ ce/f/|e/d/c e/f/e/d/:|
|:b>a fa|ge f^g|a>f eA|cd fa|b>a fa|
ge f2|1 a>f fe|ed B/d/f/a/:|2 f>e e_e|_eB BA||

